X: 1
T: Sherlock's
M: 4/4
L: 1/8
R: hornpipe
K: Gmaj
(3DEF|GA (3GFE DG,B,D|GFGA Bdgf|edcB (3ABA GA|BAGF E2 (3DEF|
GA (3GFE DG,B,D|GFGA Bdgf|edcB (3ABA GA|BGGF G2:|
Bc|d^cde dBGF|GBd^c dgfg|ef (3gfe dBGB|(3cBA BG A2 (3DEF|
GA (3GFE DG,B,D|GFGA Bdgf|edcB (3ABA GA|BGGF G2:|
